X: 30525
T: MADAM DIDELOT'S FANCY
C:
%R: reel
B: Elias Howe "The Musician's Companion" Part 3 1844 p.52 #5
S: http://imslp.org/wiki/The_Musician's_Companion_(Howe,_Elias)
S: https://archive.org/stream/firstthirdpartof03howe/#page/66/mode/1up
Z: 2015 John Chambers <jc:trillian.mit.edu>
N: The rthythms aren't quite right between the strains; not fixed.
M: 2/4
L: 1/16
K: Bb
% - - - - - - - - - - - - - - - - - - - - - - - - -
|:\
DFFG BcdB | BdBG FDDE |\
DFFG BcdB | d>fc>f B4 ::\
c |\
dffd egg2 | TAcc2 TAcc2 |\
dffd egg2 | FAAc B3 :|
% - - - - - - - - - - - - - - - - - - - - - - - - -
